packages/core/src/svgs/networks/mono/tenet.svg

<svg width="24" height="24" viewBox="0 0 24 24" fill="none" xmlns="http://www.w3.org/2000/svg">
<path d="M21.5587 5.44335C20.9704 4.5468 19.917 4.00985 18.7404 4.00985H12.2522C12.1681 4.00492 12.084 4 11.9999 4C11.9159 4 11.8319 4.00492 11.7478 4.00985H5.25955C4.08292 4.00985 3.02955 4.5468 2.44124 5.44335C1.85292 6.3399 1.85292 7.40888 2.44124 8.30543L9.18166 18.5666C9.76998 19.4631 10.8233 20 11.9999 20C13.1766 20 14.2299 19.4631 14.8183 18.5666L21.5587 8.30543C22.1471 7.4138 22.1471 6.3399 21.5587 5.44335ZM13.2606 17.7784C12.9974 18.1774 12.5267 18.4188 11.9999 18.4188C11.4733 18.4188 11.0026 18.1774 10.7393 17.7784L6.94606 12.0049L10.7393 6.2266C10.9746 5.867 11.3725 5.64039 11.8319 5.59606H12.1681C12.6275 5.64039 13.0254 5.87193 13.2606 6.2266L17.0539 12L13.2606 17.7784Z" fill="white"/>
</svg>

<svg xmlns="http://www.w3.org/2000/svg" width="24" height="24" fill="none" viewBox="0 0 24 24">
    <path fill="#fff" d="M21.559 5.443c-.589-.896-1.642-1.433-2.819-1.433h-6.488A4 4 0 0 0 12 4q-.126.001-.252.01H5.26c-1.177 0-2.23.537-2.819 1.433-.588.897-.588 1.966 0 2.862l6.74 10.262C9.77 19.463 10.824 20 12 20s2.23-.537 2.818-1.433l6.74-10.262c.59-.891.59-1.965 0-2.862M13.26 17.778c-.264.4-.734.64-1.261.64s-.997-.24-1.26-.64l-3.794-5.773 3.793-5.778c.236-.36.633-.587 1.093-.63h.336c.46.043.857.275 1.093.63L17.054 12z"/>
</svg>
